blockchains/bluzelle/logo.svg

<svg fill="none" height="250" viewBox="0 0 250 250" width="250" xmlns="http://www.w3.org/2000/svg" xmlns:xlink="http://www.w3.org/1999/xlink"><clipPath id="a"><path d="m0 0h250v250h-250z"/></clipPath><g clip-path="url(#a)"><g fill="#fdba4d"><path d="m34.8034 179.16c4.0579-4.037 9.5521-6.298 15.2759-6.287 5.7237.011 11.209 2.294 15.2511 6.347 4.042 4.052 6.3102 9.543 6.3065 15.267s-2.2792 11.212-6.3265 15.26c-4.0473 4.047-9.5356 6.322-15.2593 6.326-5.7238.004-11.2151-2.264-15.2677-6.306s-6.3351-9.528-6.3463-15.252c-.0113-5.723 2.2498-11.218 6.2866-15.276z"/><path d="m182.68 38.7702c3.023-3.0239 6.876-5.0832 11.07-5.9176s8.542-.4063 12.492 1.2301c3.951 1.6364 7.328 4.4077 9.704 7.9633s3.644 7.7359 3.644 12.0122c0 4.2764-1.268 8.4567-3.644 12.0123s-5.753 6.3269-9.704 7.9633c-3.95 1.6364-8.298 2.0645-12.492 1.2301s-8.047-2.8937-11.07-5.9177c-4.049-4.0464-6.326-9.5345-6.331-15.2585-.005-5.7241 2.262-11.2161 6.304-15.2696h.027"/><path d="m62.5293 162.526 22.8123 22.812 20.8984-20.898c-5.158-2.07-9.8424-5.164-13.7721-9.094-3.9297-3.929-7.0232-8.614-9.0938-13.771z"/><path d="m165.11 106.708 20.898-20.8981-22.812-22.8123-20.898 20.898c5.158 2.0694 9.843 5.1627 13.773 9.0931 3.925 3.9024 7.002 8.5733 9.039 13.7193z"/></g><g fill="#5da9dd"><path d="m181.951 208.656c-3.024-3.023-5.083-6.876-5.918-11.07-.834-4.194-.406-8.542 1.231-12.492 1.636-3.951 4.407-7.328 7.963-9.704 3.555-2.376 7.736-3.644 12.012-3.644s8.457 1.268 12.012 3.644c3.556 2.376 6.327 5.753 7.964 9.704 1.636 3.95 2.064 8.298 1.23 12.492-.835 4.194-2.894 8.047-5.918 11.07-2.004 2.008-4.384 3.602-7.004 4.69s-5.428 1.649-8.265 1.652c-2.837.002-5.646-.554-8.268-1.638-2.622-1.083-5.005-2.673-7.012-4.677z"/><path d="m36.9731 67.4215c-3.0239-3.0238-5.0833-6.8763-5.9176-11.0704-.8344-4.1942-.4063-8.5416 1.2301-12.4924s4.4076-7.3277 7.9633-9.7035c3.5556-2.3759 7.7359-3.644 12.0122-3.644s8.4566 1.2681 12.0122 3.644c3.5557 2.3758 6.3269 5.7527 7.9633 9.7035s2.0645 8.2982 1.2302 12.4924c-.8344 4.1941-2.8938 8.0466-5.9177 11.0704-2.0058 2.0061-4.3871 3.5974-7.008 4.6831-2.6208 1.0858-5.4299 1.6446-8.2667 1.6446s-5.6459-.5588-8.2667-1.6446c-2.6209-1.0857-5.0022-2.677-7.008-4.6831"/><path d="m161.473 184.429 22.813-22.812-20.898-20.898c-2.071 5.157-5.165 9.842-9.094 13.772-3.93 3.929-8.615 7.023-13.772 9.093"/><path d="m107.984 82.7095-20.8982-20.898-22.8124 22.8123 20.8981 20.8982c2.0694-5.158 5.1627-9.8433 9.0931-13.7726 3.9024-3.9252 8.5734-7.0027 13.7194-9.0399z"/></g><g fill="#18568c"><path d="m146.191 21.6425c-.005 5.7343-2.286 11.2322-6.343 15.2848-4.057 4.0525-9.558 6.3279-15.292 6.3258s-11.233-2.2816-15.287-6.3371-6.331-9.5551-6.331-15.2895c0-5.7343 2.277-11.2339 6.331-15.28941 4.054-4.05554 9.553-6.33497358 15.287-6.33708853s11.235 2.27326853 15.292 6.32580853c4.057 4.05259 6.338 9.55049 6.343 15.28479z"/><path d="m146.191 228.357c-.005 5.735-2.286 11.233-6.343 15.285-4.057 4.053-9.558 6.328-15.292 6.326s-11.233-2.282-15.287-6.337c-4.054-4.056-6.331-9.555-6.331-15.29 0-5.734 2.277-11.234 6.331-15.289 4.054-4.056 9.553-6.335 15.287-6.337s11.235 2.273 15.292 6.326c4.057 4.052 6.338 9.55 6.343 15.284z"/><path d="m132.407 54.6118h-13.613v26.8005c4.504-.7816 9.109-.7816 13.613 0"/><path d="m132.407 169.769c-4.504.781-9.109.781-13.613 0v26.8h13.613"/></g><path d="m220.307 140.718c-5.735-.004-11.233-2.285-15.285-6.342-4.053-4.057-6.328-9.558-6.326-15.292s2.282-11.233 6.337-15.287c4.056-4.0543 9.555-6.3317 15.29-6.3317 5.734 0 11.234 2.2774 15.289 6.3317 4.056 4.054 6.335 9.553 6.337 15.287s-2.273 11.235-6.326 15.292c-4.052 4.057-9.55 6.338-15.284 6.342z" fill="#18578c"/><path d="m21.6427 144.393c-4.2802 0-8.4644-1.269-12.02333-3.647-3.55897-2.378-6.33295-5.758-7.97117-9.712-1.63822608-3.954-2.06713-8.306-1.232481-12.504.834651-4.198 2.895371-8.054 5.921591-11.081s6.88209-5.089 11.07989-5.925c4.1979-.835 8.5493-.407 12.5041 1.23 3.9547 1.637 7.3352 4.41 9.7139 7.969 2.3788 3.558 3.649 7.742 3.65 12.022.0007 2.843-.5586 5.658-1.6459 8.284s-2.6814 5.013-4.6911 7.023c-2.0098 2.01-4.3959 3.605-7.022 4.693s-5.4409 1.648-8.2835 1.648z" fill="#18578c"/><path d="m165.275 129.557h26.801v-13.634h-26.801c.782 4.504.782 9.109 0 13.613z" fill="#18578c"/><path d="m82.0022 129.557c-.7816-4.504-.7816-9.109 0-13.613h-26.8005v13.613" fill="#18578c"/><path d="m154.582 124.346c0 6.068-1.8 12-5.171 17.046-3.372 5.046-8.164 8.978-13.77 11.301-5.607 2.322-11.776 2.93-17.728 1.746-5.951-1.184-11.419-4.106-15.71-8.397-4.2905-4.291-7.2128-9.758-8.3966-15.71-1.1839-5.952-.5763-12.121 1.746-17.728 2.3222-5.606 6.2546-10.398 11.3006-13.7695 5.046-3.3714 10.978-5.1709 17.046-5.1709 8.137.0028 15.939 3.2363 21.693 8.9894 5.753 5.754 8.987 13.556 8.99 21.693z" fill="#18568b"/></g></svg>

<svg width="250" height="250" viewBox="0 0 250 250" fill="none" xmlns="http://www.w3.org/2000/svg">
<g clip-path="url(#clip0_30_411)">
<path d="M34.8034 179.16C38.8613 175.123 44.3555 172.862 50.0793 172.873C55.803 172.884 61.2883 175.167 65.3304 179.22C69.3724 183.272 71.6406 188.763 71.6369 194.487C71.6332 200.211 69.3577 205.699 65.3104 209.747C61.2631 213.794 55.7748 216.069 50.0511 216.073C44.3273 216.077 38.836 213.809 34.7834 209.767C30.7308 205.725 28.4483 200.239 28.4371 194.515C28.4258 188.792 30.6869 183.297 34.7237 179.239L34.8034 179.16Z" fill="#FDBA4D"/>
<path d="M182.68 38.7702C185.703 35.7463 189.556 33.687 193.75 32.8526C197.944 32.0182 202.292 32.4463 206.242 34.0827C210.193 35.7191 213.57 38.4904 215.946 42.046C218.322 45.6016 219.59 49.7819 219.59 54.0582C219.59 58.3346 218.322 62.5149 215.946 66.0705C213.57 69.6261 210.193 72.3974 206.242 74.0338C202.292 75.6702 197.944 76.0983 193.75 75.2639C189.556 74.4295 185.703 72.3702 182.68 69.3462C178.631 65.2998 176.354 59.8117 176.349 54.0877C176.344 48.3636 178.611 42.8716 182.653 38.8181H182.68" fill="#FDBA4D"/>
<path d="M62.5293 162.526L85.3416 185.338L106.24 164.44C101.082 162.37 96.3976 159.276 92.4679 155.346C88.5382 151.417 85.4447 146.732 83.3741 141.575L62.5293 162.526Z" fill="#FDBA4D"/>
<path d="M165.11 106.708L186.008 85.8099L163.196 62.9976L142.298 83.8956C147.456 85.965 152.141 89.0583 156.071 92.9887C159.996 96.8911 163.073 101.562 165.11 106.708Z" fill="#FDBA4D"/>
<path d="M181.951 208.656C178.927 205.633 176.868 201.78 176.033 197.586C175.199 193.392 175.627 189.044 177.264 185.094C178.9 181.143 181.671 177.766 185.227 175.39C188.782 173.014 192.963 171.746 197.239 171.746C201.515 171.746 205.696 173.014 209.251 175.39C212.807 177.766 215.578 181.143 217.215 185.094C218.851 189.044 219.279 193.392 218.445 197.586C217.61 201.78 215.551 205.633 212.527 208.656C210.523 210.664 208.143 212.258 205.523 213.346C202.903 214.434 200.095 214.995 197.258 214.998C194.421 215 191.612 214.444 188.99 213.36C186.368 212.277 183.985 210.687 181.978 208.683L181.951 208.656Z" fill="#5DA9DD"/>
<path d="M36.9731 67.4215C33.9492 64.3977 31.8898 60.5452 31.0555 56.3511C30.2211 52.1569 30.6492 47.8095 32.2856 43.8587C33.922 39.9079 36.6932 36.531 40.2489 34.1552C43.8045 31.7793 47.9848 30.5112 52.2611 30.5112C56.5374 30.5112 60.7177 31.7793 64.2733 34.1552C67.829 36.531 70.6002 39.9079 72.2366 43.8587C73.873 47.8095 74.3011 52.1569 73.4668 56.3511C72.6324 60.5452 70.573 64.3977 67.5491 67.4215C65.5433 69.4276 63.162 71.0189 60.5411 72.1046C57.9203 73.1904 55.1112 73.7492 52.2744 73.7492C49.4376 73.7492 46.6285 73.1904 44.0077 72.1046C41.3868 71.0189 39.0055 69.4276 36.9997 67.4215" fill="#5DA9DD"/>
<path d="M161.473 184.429L184.286 161.617L163.388 140.719C161.317 145.876 158.223 150.561 154.294 154.491C150.364 158.42 145.679 161.514 140.522 163.584" fill="#5DA9DD"/>
<path d="M107.984 82.7095L87.0858 61.8115L64.2734 84.6238L85.1715 105.522C87.2409 100.364 90.3342 95.6787 94.2646 91.7494C98.167 87.8242 102.838 84.7467 107.984 82.7095Z" fill="#5DA9DD"/>
<path d="M146.191 21.6425C146.186 27.3768 143.905 32.8747 139.848 36.9273C135.791 40.9798 130.29 43.2552 124.556 43.2531C118.822 43.251 113.323 40.9715 109.269 36.916C105.215 32.8605 102.938 27.3609 102.938 21.6265C102.938 15.8922 105.215 10.3926 109.269 6.33709C113.323 2.28155 118.822 0.00211642 124.556 1.47305e-06C130.29 -0.00211348 135.791 2.27327 139.848 6.32581C143.905 10.3784 146.186 15.8763 146.191 21.6106V21.6425Z" fill="#18568C"/>
<path d="M146.191 228.357C146.186 234.092 143.905 239.59 139.848 243.642C135.791 247.695 130.29 249.97 124.556 249.968C118.822 249.966 113.323 247.686 109.269 243.631C105.215 239.575 102.938 234.076 102.938 228.341C102.938 222.607 105.215 217.107 109.269 213.052C113.323 208.996 118.822 206.717 124.556 206.715C130.29 206.713 135.791 208.988 139.848 213.041C143.905 217.093 146.186 222.591 146.191 228.325V228.357Z" fill="#18568C"/>
<path d="M132.407 54.6118H118.794V81.4123C123.298 80.6307 127.903 80.6307 132.407 81.4123" fill="#18568C"/>
<path d="M132.407 169.769C127.903 170.55 123.298 170.55 118.794 169.769V196.569H132.407" fill="#18568C"/>
<path d="M220.307 140.718C214.572 140.714 209.074 138.433 205.022 134.376C200.969 130.319 198.694 124.818 198.696 119.084C198.698 113.35 200.978 107.851 205.033 103.797C209.089 99.7427 214.588 97.4653 220.323 97.4653C226.057 97.4653 231.557 99.7427 235.612 103.797C239.668 107.851 241.947 113.35 241.949 119.084C241.951 124.818 239.676 130.319 235.623 134.376C231.571 138.433 226.073 140.714 220.339 140.718H220.307Z" fill="#18578C"/>
<path d="M21.6427 144.393C17.3625 144.393 13.1783 143.124 9.61937 140.746C6.0604 138.368 3.28642 134.988 1.6482 131.034C0.00997392 127.08 -0.41893 122.728 0.415719 118.53C1.25037 114.332 3.31109 110.476 6.33731 107.449C9.36353 104.422 13.2194 102.36 17.4172 101.524C21.6151 100.689 25.9665 101.117 29.9213 102.754C33.876 104.391 37.2565 107.164 39.6352 110.723C42.014 114.281 43.2842 118.465 43.2852 122.745C43.2859 125.588 42.7266 128.403 41.6393 131.029C40.552 133.655 38.9579 136.042 36.9482 138.052C34.9384 140.062 32.5523 141.657 29.9262 142.745C27.3001 143.833 24.4853 144.393 21.6427 144.393Z" fill="#18578C"/>
<path d="M165.275 129.557H192.076V115.923H165.275C166.057 120.427 166.057 125.032 165.275 129.536V129.557Z" fill="#18578C"/>
<path d="M82.0022 129.557C81.2206 125.053 81.2206 120.448 82.0022 115.944H55.2017V129.557" fill="#18578C"/>
<path d="M154.582 124.346C154.582 130.414 152.782 136.346 149.411 141.392C146.039 146.438 141.247 150.37 135.641 152.693C130.034 155.015 123.865 155.623 117.913 154.439C111.962 153.255 106.494 150.333 102.203 146.042C97.9125 141.751 94.9902 136.284 93.8064 130.332C92.6225 124.38 93.2301 118.211 95.5524 112.604C97.8746 106.998 101.807 102.206 106.853 98.8345C111.899 95.4631 117.831 93.6636 123.899 93.6636C132.036 93.6664 139.838 96.8999 145.592 102.653C151.345 108.407 154.579 116.209 154.582 124.346Z" fill="#18568B"/>
</g>
<defs>
<clipPath id="clip0_30_411">
<rect width="250" height="250" fill="white"/>
</clipPath>
</defs>
</svg>
